{
  "compressionlevel": -1,
  "height": 1,
  "infinite": false,
  "layers": [
    {
      "data": [0],
      "height": 1,
      "id": 1,
      "name": "Terrain",
      "type": "tilelayer",
      "width": 1,
      "x": 0,
      "y": 0
    },
    {
      "draworder": "topdown",
      "id": 2,
      "name": "Things",
      "objects": [
        {
          "height": 0,
          "id": 1,
          "name": "",
          "point": true,
          "rotation": 0,
          "type": "marker",
          "visible": true,
          "width": 0,
          "x": 8,
          "y": 8
        }
      ],
      "opacity": 1,
      "type": "objectgroup",
      "visible": true,
      "x": 0,
      "y": 0
    }
  ],
  "nextlayerid": 3,
  "nextobjectid": 2,
  "orientation": "orthogonal",
  "renderorder": "right-down",
  "tiledversion": "1.11.2",
  "tileheight": 16,
  "tilesets": [],
  "tilewidth": 16,
  "type": "map",
  "version": "1.10",
  "width": 1
}
